usr/share/icons/biglinux-icons-material/scalable/mimetypes/text-x-generic.svg

<svg width="24" height="24" viewBox="0 0 24 24" fill="none" xmlns="http://www.w3.org/2000/svg">
<rect x="1" y="1" width="22" height="22" rx="6.6" fill="url(#paint0_radial_3_136)"/>
<path d="M3.99938 12.557C3.99938 12.4466 4.08892 12.357 4.19938 12.357H19.7994C19.9098 12.357 19.9994 12.4466 19.9994 12.557V13.157C19.9994 13.2675 19.9098 13.357 19.7994 13.357H4.19938C4.08892 13.357 3.99938 13.2675 3.99938 13.157V12.557Z" fill="#006699"/>
<path d="M3.99938 14.271C3.99938 14.1606 4.08892 14.071 4.19938 14.071H19.7994C19.9098 14.071 19.9994 14.1606 19.9994 14.271V14.871C19.9994 14.9815 19.9098 15.071 19.7994 15.071H4.19938C4.08892 15.071 3.99938 14.9815 3.99938 14.871V14.271Z" fill="#006699"/>
<path d="M3.99938 15.9859C3.99938 15.8754 4.08892 15.7859 4.19938 15.7859H19.7994C19.9098 15.7859 19.9994 15.8754 19.9994 15.9859V16.5859C19.9994 16.6964 19.9098 16.7859 19.7994 16.7859H4.19938C4.08892 16.7859 3.99938 16.6964 3.99938 16.5859V15.9859Z" fill="#006699"/>
<path d="M3.99938 17.7008C3.99938 17.5903 4.08892 17.5008 4.19938 17.5008H11.7994C11.9098 17.5008 11.9994 17.5903 11.9994 17.7008V18.3008C11.9994 18.4112 11.9098 18.5008 11.7994 18.5008H4.19938C4.08892 18.5008 3.99938 18.4112 3.99938 18.3008V17.7008Z" fill="#006699"/>
<path d="M3.99938 7.41421C3.99938 7.30375 4.08892 7.21421 4.19938 7.21421H19.7994C19.9098 7.21421 19.9994 7.30375 19.9994 7.41421V8.01421C19.9994 8.12466 19.9098 8.21421 19.7994 8.21421H4.19938C4.08892 8.21421 3.99938 8.12466 3.99938 8.01421V7.41421Z" fill="#006699"/>
<path d="M3.99938 9.12842C3.99938 9.01796 4.08892 8.92842 4.19938 8.92842H19.7994C19.9098 8.92842 19.9994 9.01796 19.9994 9.12842V9.72842C19.9994 9.83887 19.9098 9.92842 19.7994 9.92842H4.19938C4.08892 9.92842 3.99938 9.83887 3.99938 9.72842V9.12842Z" fill="#006699"/>
<path d="M3.99938 10.8428C3.99938 10.7324 4.08892 10.6428 4.19938 10.6428H19.7994C19.9098 10.6428 19.9994 10.7324 19.9994 10.8428V11.4428C19.9994 11.5533 19.9098 11.6428 19.7994 11.6428H4.19938C4.08892 11.6428 3.99938 11.5533 3.99938 11.4428V10.8428Z" fill="#006699"/>
<path d="M3.99938 5.7C3.99938 5.58954 4.08892 5.5 4.19938 5.5H19.7994C19.9098 5.5 19.9994 5.58954 19.9994 5.7V6.3C19.9994 6.41046 19.9098 6.5 19.7994 6.5H4.19938C4.08892 6.5 3.99938 6.41046 3.99938 6.3V5.7Z" fill="#006699"/>
<defs>
<radialGradient id="paint0_radial_3_136" cx="0" cy="0" r="1" gradientUnits="userSpaceOnUse" gradientTransform="translate(17.5 1) rotate(116.565) scale(24.5967)">
<stop stop-color="#F4F4F4"/>
<stop offset="1" stop-color="#BBBBBB"/>
</radialGradient>
</defs>
</svg>

<svg xmlns="http://www.w3.org/2000/svg" width="24" height="24" fill="none"><rect width="22" height="22" x="1" y="1" fill="url(#a)" rx="6.6"/><path fill="#069" d="M4 12.557c0-.11.089-.2.2-.2h15.6c.11 0 .2.09.2.2v.6a.2.2 0 0 1-.2.2H4.2a.2.2 0 0 1-.2-.2v-.6ZM4 14.271c0-.11.089-.2.2-.2h15.6c.11 0 .2.09.2.2v.6a.2.2 0 0 1-.2.2H4.2a.2.2 0 0 1-.2-.2v-.6ZM4 15.986c0-.11.089-.2.2-.2h15.6c.11 0 .2.09.2.2v.6a.2.2 0 0 1-.2.2H4.2a.2.2 0 0 1-.2-.2v-.6ZM4 17.7c0-.11.089-.2.2-.2h7.6c.11 0 .2.09.2.2v.6a.2.2 0 0 1-.2.2H4.2a.2.2 0 0 1-.2-.2v-.6ZM4 7.414c0-.11.089-.2.2-.2h15.6c.11 0 .2.09.2.2v.6a.2.2 0 0 1-.2.2H4.2a.2.2 0 0 1-.2-.2v-.6ZM4 9.128c0-.11.089-.2.2-.2h15.6c.11 0 .2.09.2.2v.6a.2.2 0 0 1-.2.2H4.2a.2.2 0 0 1-.2-.2v-.6ZM4 10.843c0-.11.089-.2.2-.2h15.6c.11 0 .2.09.2.2v.6a.2.2 0 0 1-.2.2H4.2a.2.2 0 0 1-.2-.2v-.6ZM4 5.7c0-.11.089-.2.2-.2h15.6c.11 0 .2.09.2.2v.6a.2.2 0 0 1-.2.2H4.2a.2.2 0 0 1-.2-.2v-.6Z"/><defs><radialGradient id="a" cx="0" cy="0" r="1" gradientTransform="rotate(116.565 8.441 5.908) scale(24.5967)" gradientUnits="userSpaceOnUse"><stop stop-color="#F4F4F4"/><stop offset="1" stop-color="#BBB"/></radialGradient></defs></svg>
